lib/svg/file-xml.svg

<svg width="32" height="32" viewBox="0 0 32 32" fill="none" xmlns="http://www.w3.org/2000/svg">
<path fill-rule="evenodd" clip-rule="evenodd" d="M16 6.00003H9.25C8.91132 6.00003 8.59091 6.13179 8.35813 6.3594C8.12611 6.58626 8 6.88911 8 7.20003V24.8C8 25.1109 8.12611 25.4138 8.35813 25.6407C8.59091 25.8683 8.91132 26 9.25 26H22.75C23.0887 26 23.4091 25.8683 23.6419 25.6407C23.8739 25.4138 24 25.1109 24 24.8V14H17C16.4477 14 16 13.5523 16 13V6.00003ZM26 13.0079V24.8C26 25.6561 25.652 26.4724 25.0401 27.0707C24.429 27.6682 23.6048 28 22.75 28H9.25C8.39521 28 7.57102 27.6682 6.95989 27.0707C6.348 26.4724 6 25.6561 6 24.8V7.20003C6 6.34399 6.348 5.52768 6.95989 4.92939C7.57102 4.33184 8.39521 4.00003 9.25 4.00003H16.9921C16.9972 3.99999 17.0023 3.99999 17.0074 4.00003H17.125C17.3863 4.00003 17.6373 4.10233 17.8241 4.28502L25.6991 11.985C25.8915 12.1732 26 12.4309 26 12.7V12.9926C26 12.9977 26 13.0028 26 13.0079ZM18 12V7.41424L22.5858 12H18Z" fill="#4364E8"/>
<rect x="8" y="17" width="16" height="9" fill="#4364E8"/>
<path d="M9.52734 25H8.12891L9.98047 22.0664L8.21875 19.2422H9.65625L10.6836 21.1133L11.7383 19.2422H13.1289L11.3672 22.0195L13.2383 25H11.7773L10.6836 23.0391L9.52734 25Z" fill="white"/>
<path d="M17.6017 19.2422H19.3322V25H18.2111V21.1055C18.2111 20.9935 18.2124 20.8372 18.215 20.6367C18.2176 20.4336 18.2189 20.2773 18.2189 20.168L17.1291 25H15.9611L14.8791 20.168C14.8791 20.2773 14.8804 20.4336 14.883 20.6367C14.8856 20.8372 14.8869 20.9935 14.8869 21.1055V25H13.7658V19.2422H15.5158L16.5627 23.7695L17.6017 19.2422Z" fill="white"/>
<path d="M20.2894 19.2422H21.4925V23.9648H24.3441V25H20.2894V19.2422Z" fill="white"/>
</svg>

<svg xmlns="http://www.w3.org/2000/svg" width="32" height="32" fill="none" viewBox="0 0 32 32">
  <g class="file / xml">
    <path  fill-rule="evenodd" d="M16 6H9.25c-.339 0-.66.132-.892.36-.232.226-.358.53-.358.84v17.6c0 .31.126.614.358.84.233.228.553.36.892.36h13.5c.339 0 .66-.132.892-.36.232-.226.358-.53.358-.84V14h-7a1 1 0 01-1-1V6zm10 7.008V24.8c0 .856-.348 1.672-.96 2.27a3.276 3.276 0 01-2.29.93H9.25a3.276 3.276 0 01-2.29-.93A3.175 3.175 0 016 24.8V7.2c0-.856.348-1.672.96-2.27A3.276 3.276 0 019.25 4h7.875a1 1 0 01.7.285l7.874 7.7A1 1 0 0126 12.7v.308zM18 12V7.414L22.586 12H18z" class="Union" clip-rule="evenodd"/>
    <path  d="M8 17h16v9H8z" class="Rectangle 65"/>
    <g class="XML">
      <path  d="M9.527 25H8.13l1.851-2.934-1.761-2.824h1.437l1.028 1.871 1.054-1.87h1.39l-1.76 2.777 1.87 2.98h-1.46l-1.094-1.96L9.527 25zM17.602 19.242h1.73V25h-1.12v-3.895c0-.111 0-.268.003-.468.003-.203.004-.36.004-.469L17.129 25h-1.168l-1.082-4.832c0 .11.001.266.004.469.003.2.004.357.004.468V25h-1.121v-5.758h1.75l1.047 4.527 1.039-4.527zM20.29 19.242h1.203v4.723h2.851V25H20.29v-5.758z"/>
    </g>
  </g>
</svg>
